Numix-GalliumOS/64/categories/applications-photography.svg

<?xml version="1.0" encoding="UTF-8" standalone="no"?>
<svg
   xmlns:dc="http://purl.org/dc/elements/1.1/"
   xmlns:cc="http://creativecommons.org/ns#"
   xmlns:rdf="http://www.w3.org/1999/02/22-rdf-syntax-ns#"
   xmlns:svg="http://www.w3.org/2000/svg"
   xmlns="http://www.w3.org/2000/svg"
   xmlns:sodipodi="http://sodipodi.sourceforge.net/DTD/sodipodi-0.dtd"
   xmlns:inkscape="http://www.inkscape.org/namespaces/inkscape"
   width="64"
   height="64"
   viewBox="0 0 51.2 51.2"
   id="svg2"
   version="1.1"
   inkscape:version="0.91 r"
   sodipodi:docname="applications-photography.svg">
  <metadata
     id="metadata18">
    <rdf:RDF>
      <cc:Work
         rdf:about="">
        <dc:format>image/svg+xml</dc:format>
        <dc:type
           rdf:resource="http://purl.org/dc/dcmitype/StillImage" />
        <dc:title />
      </cc:Work>
    </rdf:RDF>
  </metadata>
  <defs
     id="defs16" />
  <sodipodi:namedview
     pagecolor="#ffffff"
     bordercolor="#666666"
     borderopacity="1"
     objecttolerance="10"
     gridtolerance="10"
     guidetolerance="10"
     inkscape:pageopacity="0"
     inkscape:pageshadow="2"
     inkscape:window-width="1680"
     inkscape:window-height="1026"
     id="namedview14"
     showgrid="true"
     inkscape:zoom="3.5132042"
     inkscape:cx="-33.314853"
     inkscape:cy="6.2371981"
     inkscape:window-x="0"
     inkscape:window-y="24"
     inkscape:window-maximized="1"
     inkscape:current-layer="svg2">
    <inkscape:grid
       type="xygrid"
       id="grid4146" />
  </sodipodi:namedview>
  <path
     style="fill:none;stroke:#e08dc9;stroke-width:3.20000005;stroke-linecap:round;stroke-linejoin:round;stroke-miterlimit:4;stroke-dasharray:none"
     d="m 9.7194831,15.2 31.7610309,0 C 42.42919,15.2 43.2,15.935352 43.2,16.845118 l 0,19.114476 C 43.2,36.864648 42.42919,37.6 41.480514,37.6 l -31.7610309,0 c -0.9486804,0 -1.7194832,-0.735352 -1.7194832,-1.640406 l 0,-19.114476 C 7.9999999,15.935352 8.7708027,15.2 9.7194831,15.2 Z"
     id="path4"
     inkscape:connector-curvature="0" />
  <path
     style="fill:#e08dc9"
     inkscape:connector-curvature="0"
     id="path8"
     d="m 12.268912,12 4.262175,0 C 17.123929,12 17.6,12.714104 17.6,13.60337 17.6,14.485894 17.123929,15.2 16.531087,15.2 l -4.262175,0 C 11.67607,15.2 11.2,14.485894 11.2,13.60337 11.2,12.714104 11.67607,12 12.268912,12 Z" />
  <path
     style="fill:#e08dc9"
     inkscape:connector-curvature="0"
     id="path10"
     d="m 37.869662,18.4 1.065168,0 C 39.523594,18.4 40,18.880224 40,19.468162 l 0,1.068162 C 40,21.124262 39.523594,21.6 38.93483,21.6 l -1.065168,0 C 37.276404,21.6 36.8,21.124262 36.8,20.536324 l 0,-1.068162 C 36.8,18.880224 37.276404,18.4 37.869662,18.4 Z" />
  <path
     style="fill:none;stroke:#e08dc9;stroke-width:3.20000005;stroke-miterlimit:4;stroke-dasharray:none"
     d="M 32,26.400002 C 32,29.935752 29.13575,32.8 25.6,32.8 22.064248,32.8 19.200001,29.935752 19.200001,26.400002 19.200001,22.86425 22.064248,20 25.6,20 c 3.53575,0 6.4,2.86425 6.4,6.400002 z"
     id="path12"
     inkscape:connector-curvature="0" />
</svg>

<svg xmlns="http://www.w3.org/2000/svg" width="64" height="64" viewBox="0 0 51.2 51.2">
 <path d="m 9.719 15.2 31.761 0 c 0.949 0 1.719 0.735 1.719 1.645 l 0 19.11 c 0 0.905 -0.771 1.64 -1.719 1.64 l -31.761 0 c -0.949 0 -1.719 -0.735 -1.719 -1.64 l 0 -19.11 c 0 -0.91 0.771 -1.645 1.719 -1.645" style="stroke-dasharray:none;fill:none;stroke-miterlimit:4;stroke:#e08dc9;stroke-linecap:round;stroke-linejoin:round;stroke-width:3.2"/>
 <path d="m 12.269 12 4.262 0 c 0.593 0 1.069 0.714 1.069 1.603 0 0.883 -0.476 1.597 -1.069 1.597 l -4.262 0 c -0.593 0 -1.069 -0.714 -1.069 -1.597 0 -0.889 0.476 -1.603 1.069 -1.603" style="fill:#e08dc9"/>
 <path d="m 37.87 18.4 1.065 0 c 0.589 0 1.065 0.48 1.065 1.068 l 0 1.068 c 0 0.588 -0.476 1.064 -1.065 1.064 l -1.065 0 c -0.593 0 -1.07 -0.476 -1.07 -1.064 l 0 -1.068 c 0 -0.588 0.476 -1.068 1.07 -1.068" style="fill:#e08dc9"/>
 <path d="m 32 26.4 c 0 3.536 -2.864 6.4 -6.4 6.4 -3.536 0 -6.4 -2.864 -6.4 -6.4 0 -3.536 2.864 -6.4 6.4 -6.4 c 3.536 0 6.4 2.864 6.4 6.4 z" style="stroke-dasharray:none;fill:none;stroke-miterlimit:4;stroke:#e08dc9;stroke-width:3.2"/>
</svg>
